assets/icons/download.svg

<svg width="31" height="33" viewBox="0 0 31 33" fill="none" xmlns="http://www.w3.org/2000/svg">
<path d="M19.4065 13.6305L16.5237 16.5132V1.8737C16.5237 1.30547 16.0683 0.85 15.5 0.85C14.9318 0.85 14.4763 1.30547 14.4763 1.8737V16.5132L11.5936 13.6305C11.1927 13.2296 10.5408 13.228 10.1448 13.631C9.74374 14.0326 9.74392 14.6773 10.1453 15.0787L14.7792 19.7125C14.9754 19.9088 15.24 20.0153 15.5 20.0153C15.7571 20.0153 16.0232 19.9173 16.2219 19.7116C16.2222 19.7112 16.2226 19.7109 16.2229 19.7105L20.8548 15.0787C21.2563 14.6771 21.2563 14.0321 20.8548 13.6305C20.4532 13.2289 19.8081 13.2289 19.4065 13.6305Z" fill="white" stroke="white" stroke-width="0.3"/>
<path d="M26.8864 9.85231L26.8861 9.85156C26.8028 9.5562 26.598 9.32161 26.3269 9.1936L26.3269 9.19359L26.3257 9.19304L26.2416 9.15421L26.2416 9.15419L26.2396 9.15333C26.1042 9.09312 25.9605 9.06274 25.8163 9.06274H20.3347C19.7664 9.06274 19.311 9.51821 19.311 10.0864C19.311 10.6547 19.7664 11.1101 20.3347 11.1101H25.1132L27.5997 20.1166H21.0013C20.433 20.1166 19.9776 20.5721 19.9776 21.1403V21.9299C19.9776 23.0055 19.1063 23.8767 18.0307 23.8767H12.6979C11.6223 23.8767 10.7511 23.0055 10.7511 21.9299V21.1403C10.7511 20.5721 10.2956 20.1166 9.72737 20.1166H3.39448L5.89367 11.0907H10.6723C11.2405 11.0907 11.6959 10.6352 11.6959 10.067C11.6959 9.49879 11.2405 9.04333 10.6723 9.04333H5.18415C5.03998 9.04333 4.89628 9.07371 4.76081 9.13392L4.7608 9.1339L4.75887 9.13479L4.67474 9.17362L4.67474 9.17362L4.67355 9.17418C4.40521 9.3009 4.19107 9.53452 4.11375 9.8342L1.07235 20.835L1.07231 20.835L1.07141 20.8386C1.05021 20.9234 1.03457 21.0139 1.03457 21.1079V25.6965C1.03457 29.2547 3.92991 32.15 7.48812 32.15H23.5123C27.0705 32.15 29.9659 29.2547 29.9659 25.6965V21.1274C29.9659 21.0392 29.9596 20.943 29.9266 20.8491L26.8864 9.85231ZM27.9314 25.5465H27.9185V25.6965C27.9185 28.1247 25.9406 30.1026 23.5123 30.1026H7.48812C5.0599 30.1026 3.08196 28.1247 3.08196 25.6965V22.164H8.72254C8.84473 24.2547 10.5884 25.9176 12.7109 25.9176H18.0437C20.1661 25.9176 21.9098 24.2547 22.032 22.164H27.9314V25.5465Z" fill="white" stroke="white" stroke-width="0.3"/>
</svg>

<svg width="31" height="33" fill="none" xmlns="http://www.w3.org/2000/svg"><path d="m19.407 13.63-2.883 2.883V1.873A1.02 1.02 0 0 0 15.5.85a1.02 1.02 0 0 0-1.024 1.024v14.64l-2.882-2.883c-.401-.401-1.053-.403-1.45 0a1.021 1.021 0 0 0 .001 1.448l4.634 4.633c.196.197.461.303.721.303.257 0 .523-.098.722-.303v-.002l4.633-4.631a1.021 1.021 0 0 0 0-1.449 1.021 1.021 0 0 0-1.448 0Z" fill="#fff" stroke="#fff" stroke-width=".3"/><path d="M26.886 9.852a1.035 1.035 0 0 0-.56-.658v-.001l-.084-.039h-.002a1.04 1.04 0 0 0-.424-.091h-5.481a1.02 1.02 0 0 0-1.024 1.023 1.02 1.02 0 0 0 1.024 1.024h4.778l2.487 9.007H21a1.02 1.02 0 0 0-1.023 1.023v.79a1.946 1.946 0 0 1-1.947 1.947h-5.333a1.946 1.946 0 0 1-1.947-1.947v-.79a1.02 1.02 0 0 0-1.024-1.023H3.394l2.5-9.026h4.778a1.02 1.02 0 0 0 1.024-1.024 1.02 1.02 0 0 0-1.024-1.024H5.184c-.144 0-.288.03-.423.09l-.002.002-.084.039h-.001c-.269.127-.483.36-.56.66L1.072 20.835v.004a1.11 1.11 0 0 0-.037.269v4.588a6.461 6.461 0 0 0 6.453 6.454h16.024a6.461 6.461 0 0 0 6.454-6.453v-4.57a.831.831 0 0 0-.04-.278l-3.04-10.997Zm1.045 15.695h-.012v.15a4.413 4.413 0 0 1-4.407 4.406H7.488a4.413 4.413 0 0 1-4.406-4.407v-3.532h5.64a3.998 3.998 0 0 0 3.989 3.754h5.333a3.998 3.998 0 0 0 3.988-3.754h5.9v3.383Z" fill="#fff" stroke="#fff" stroke-width=".3"/></svg>
